X:1
T:The Rejected Lover
M:4/4
L:1/4
K:C
 E| A A G E/2E/2| A/2A/2 G/2G/2 E d/2d/2| e e c c| d3| d| e3/2 d/2 e B|\
 c A A E/2E/2| G- E G A| E2 d| c/2d/2| B2 E G| A3||
